client/resources/iconsets/breeze/src/svg/16x16/icon_mail_report_accept.svg

<svg xmlns="http://www.w3.org/2000/svg" width="16" height="16" viewBox="0 0 16 16">
 <path style="fill:#6d6d70"
       d="M 5,10 1,6 3,6 3,1 7,1 7,6 9,6 Z"
       />
 <path style="fill:#3caa3e"
       d="m 15.362668,7.135351 c -0.0724,-0.01358 -0.148291,-0.01436 -0.225582,0.0015 -0.164714,0.03553 -0.31654,0.127702 -0.423332,0.257808 l -4.7269688,5.399325 -1.6918651,-1.6904 c -0.2831998,-0.2827 -0.7992482,-0.282678 -1.0825007,0 -0.2832149,0.282685 -0.2832374,0.796856 0,1.079571 L 9.4697043,14.436045 10.058561,15 10.575642,14.389171 15.843129,8.380486 c 0.373625,-0.405981 0.02635,-1.150053 -0.480461,-1.245095 z"
       />
</svg>

<svg xmlns="http://www.w3.org/2000/svg" width="16" height="16"><path d="M5 10L1 6h2V1h4v5h2z" fill="#6d6d70"/><path d="M15.363 7.135a.58.58 0 0 0-.226.002.76.76 0 0 0-.423.258l-4.727 5.399-1.692-1.69a.8.8 0 0 0-1.083 0c-.283.283-.283.797 0 1.08l2.257 2.253.589.564.517-.611 5.267-6.009c.374-.406.026-1.15-.48-1.245z" fill="#3caa3e"/></svg>
